X: 22190
T: La Berceuse
R: reel
M: 4/4
K: Fmajor
|:dG~G2 dcAc|dcBA GBAG|AF~F2cF|~F2AFc FdcAc|
dG~G2 dcAc|dcBA Gcdg|fdcA FGAc|dAcA GABc:|
|:dggf g2fg|bagf dgfd|fc~c2 ac~c2|fc~c2 agfd|
fggf g2fg|bagf dgfd|fdcA FGAc|1 dAcA GABc:|2 dAcA G4||

